X:1
T:[ID 7-106]
T:[ID 7-106]
T:Bezeichnung standardisiert: Quadrille [mit Trio] Quadrillge [mit Trio]
T:Urheber unbekannt Erstbeleg: 1776-1791 (Datum in der schriftlichen Quelle) Datum in der hier transkribierten schriftlichen Quelle: 1799
C:Urheber unbekannt
C:Erstbeleg: 1776-1791 (Datum in der schriftlichen Quelle)
C:Datum in der hier transkribierten schriftlichen Quelle: 1799
%%score 1 2
L:1/8
M:2/4
K:G
V:1 treble 
V:2 treble nm="Secondo"
V:1
 G2 G>G | B2 z2 | G2 G>G | D2 z2 | G2 G>G | B2 B2 | AGAB | G2 z2 :: B3 c | d2 dg | (gf)(fe) | %11
 e2 d2 | B3 c | defg | dcBA | G2 z2 :|[M:2/4]"^Trio" !fermata!GFGA | BABc | dBAc x20 :: c2 B2 | %20
 GFGA | BABc | dcBA x16 :| G2 z2 :: d3 c | B3 c | d2 e2 | f2 g2 | d3 c | B3 c | dcBA | G2 z2 :| %32
V:2
 !fermata!B,2 B,>B, | D2 z2 | B,2 B,>B, | F2 z2 | B,2 B,>B, | D2 D2 | CB,CD | B,3 z :: G3 A | %9
 B2 BB | Bddc | c2 B2 | G3 A | B2"^1)" x2 | BADC | B,2 z2 :|[M:2/4] B,A,B,C | DCDE | %18
 B2 A2 x4 x4 x4 x4 x4 :: B3 A | G3 A | B2 c2 | d2 x2 x4 x4 x4 x4 :| x4 :: x4 | x4 | x4 | x4 | x4 | %29
 x4 | x4 | x4 :| %32

